packages/core/src/svgs/tokens/branded/RAZOR.svg

<svg width="24" height="24" viewBox="0 0 24 24" fill="none" xmlns="http://www.w3.org/2000/svg">
<path d="M21.0858 8.6687C20.5831 8.6687 20.1772 9.05631 20.1772 9.54092V14.4772C20.1833 14.9558 20.6012 15.3374 21.0979 15.3313C21.3289 15.3331 21.5517 15.2449 21.7189 15.0857C21.8862 14.9262 21.985 14.7082 21.9943 14.4772V9.54092C21.9943 9.05631 21.5886 8.6687 21.0858 8.6687Z" fill="#4FA8FF"/>
<path d="M18.0572 6.24594C17.5545 6.24594 17.1487 6.63358 17.1487 7.10602V16.8698C17.1366 17.3483 17.5364 17.7419 18.0391 17.7541C18.5357 17.7662 18.9536 17.3907 18.9658 16.9122V7.10602C18.9658 6.63358 18.5599 6.24594 18.0572 6.24594Z" fill="url(#paint0_linear_364_8763)"/>
<path d="M15.0282 2.00607C14.5254 2.00607 14.1196 2.38766 14.1196 2.86616V21.1399C14.1196 21.6123 14.5254 21.9939 15.0282 21.9939C15.5309 21.9939 15.9367 21.6123 15.9367 21.1399V2.86616C15.9367 2.38766 15.5309 2.00607 15.0282 2.00607Z" fill="url(#paint1_linear_364_8763)"/>
<path d="M11.9999 6.85159C11.4972 6.85159 11.0913 7.22107 11.0913 7.68139V15.7128C11.0913 16.1672 11.4972 16.5427 11.9999 16.5427C12.5026 16.5427 12.9085 16.1732 12.9085 15.7128V7.68139C12.9085 7.22107 12.5026 6.85159 11.9999 6.85159Z" fill="url(#paint2_linear_364_8763)"/>
<path d="M8.97146 2.00606C8.46881 2.00606 8.06299 2.38765 8.06299 2.86008V21.146C8.06299 21.6184 8.46881 22 8.97146 22C9.47431 22 9.88006 21.6184 9.88006 21.146V2.85403C9.88006 2.38159 9.47431 2.00606 8.97146 2V2.00606Z" fill="url(#paint3_linear_364_8763)"/>
<path d="M5.94271 5.03455C5.43999 5.03455 5.03418 5.41008 5.03418 5.87041V18.1296C5.03418 18.5899 5.43999 18.9656 5.94271 18.9656C6.44544 18.9656 6.85125 18.5899 6.85125 18.1296V5.87041C6.85125 5.41008 6.44544 5.03455 5.94271 5.03455Z" fill="url(#paint4_linear_364_8763)"/>
<path d="M2.91392 8.6687C2.41118 8.6687 2.00537 9.0443 2.00537 9.5046V14.5016C2.00537 14.9558 2.41118 15.3313 2.91392 15.3313C3.41663 15.3313 3.82245 14.9558 3.82245 14.5016V9.5046C3.82245 9.0443 3.41663 8.6687 2.91392 8.6687Z" fill="url(#paint5_linear_364_8763)"/>
<defs>
<linearGradient id="paint0_linear_364_8763" x1="-171.06" y1="10.0841" x2="36.8496" y2="10.0841" gradientUnits="userSpaceOnUse">
<stop stop-color="#14779A"/>
<stop offset="1" stop-color="#4FA8FF"/>
</linearGradient>
<linearGradient id="paint1_linear_364_8763" x1="-137.776" y1="10.9152" x2="70.1644" y2="10.9152" gradientUnits="userSpaceOnUse">
<stop stop-color="#14779A"/>
<stop offset="1" stop-color="#4FA8FF"/>
</linearGradient>
<linearGradient id="paint2_linear_364_8763" x1="-104.396" y1="9.82496" x2="103.411" y2="9.82496" gradientUnits="userSpaceOnUse">
<stop stop-color="#14779A"/>
<stop offset="1" stop-color="#4FA8FF"/>
</linearGradient>
<linearGradient id="paint3_linear_364_8763" x1="-71.0829" y1="10.9157" x2="136.724" y2="10.9157" gradientUnits="userSpaceOnUse">
<stop stop-color="#14779A"/>
<stop offset="1" stop-color="#4FA8FF"/>
</linearGradient>
<linearGradient id="paint4_linear_364_8763" x1="-37.8369" y1="10.4782" x2="170.104" y2="10.4782" gradientUnits="userSpaceOnUse">
<stop stop-color="#14779A"/>
<stop offset="1" stop-color="#4FA8FF"/>
</linearGradient>
<linearGradient id="paint5_linear_364_8763" x1="1.41179" y1="10.9457" x2="20.3155" y2="10.9457" gradientUnits="userSpaceOnUse">
<stop stop-color="#14779A"/>
<stop offset="1" stop-color="#4FA8FF"/>
</linearGradient>
</defs>
</svg>

<svg xmlns="http://www.w3.org/2000/svg" width="24" height="24" fill="none" viewBox="0 0 24 24">
    <path fill="#4FA8FF" d="M21.086 8.669c-.503 0-.909.387-.909.872v4.936c.006.479.424.86.92.854a.89.89 0 0 0 .897-.854V9.541c0-.485-.405-.872-.908-.872"/>
    <path fill="url(#RAZOR__a)" d="M18.057 6.246c-.502 0-.908.388-.908.86v9.764c-.012.478.387.872.89.884.497.012.915-.363.927-.842V7.106c0-.472-.406-.86-.909-.86"/>
    <path fill="url(#RAZOR__b)" d="M15.028 2.006c-.503 0-.908.382-.908.86V21.14c0 .472.405.854.908.854s.909-.382.909-.854V2.866c0-.478-.406-.86-.909-.86"/>
    <path fill="url(#RAZOR__c)" d="M12 6.852c-.503 0-.909.37-.909.83v8.03c0 .455.406.83.909.83s.909-.369.909-.83v-8.03c0-.46-.406-.83-.91-.83"/>
    <path fill="url(#RAZOR__d)" d="M8.971 2.006c-.502 0-.908.382-.908.854v18.286c0 .472.406.854.908.854.503 0 .91-.382.91-.854V2.854c0-.472-.407-.848-.91-.854z"/>
    <path fill="url(#RAZOR__e)" d="M5.943 5.035c-.503 0-.909.375-.909.835v12.26c0 .46.406.836.909.836.502 0 .908-.376.908-.836V5.87c0-.46-.406-.835-.908-.835"/>
    <path fill="url(#RAZOR__f)" d="M2.914 8.669c-.503 0-.909.375-.909.836v4.997c0 .454.406.83.909.83s.908-.376.908-.83V9.505c0-.46-.405-.836-.908-.836"/>
    <defs>
        <linearGradient id="RAZOR__a" x1="-171.06" x2="36.85" y1="10.084" y2="10.084" gradientUnits="userSpaceOnUse">
            <stop stop-color="#14779A"/>
            <stop offset="1" stop-color="#4FA8FF"/>
        </linearGradient>
        <linearGradient id="RAZOR__b" x1="-137.776" x2="70.164" y1="10.915" y2="10.915" gradientUnits="userSpaceOnUse">
            <stop stop-color="#14779A"/>
            <stop offset="1" stop-color="#4FA8FF"/>
        </linearGradient>
        <linearGradient id="RAZOR__c" x1="-104.396" x2="103.411" y1="9.825" y2="9.825" gradientUnits="userSpaceOnUse">
            <stop stop-color="#14779A"/>
            <stop offset="1" stop-color="#4FA8FF"/>
        </linearGradient>
        <linearGradient id="RAZOR__d" x1="-71.083" x2="136.724" y1="10.916" y2="10.916" gradientUnits="userSpaceOnUse">
            <stop stop-color="#14779A"/>
            <stop offset="1" stop-color="#4FA8FF"/>
        </linearGradient>
        <linearGradient id="RAZOR__e" x1="-37.837" x2="170.104" y1="10.478" y2="10.478" gradientUnits="userSpaceOnUse">
            <stop stop-color="#14779A"/>
            <stop offset="1" stop-color="#4FA8FF"/>
        </linearGradient>
        <linearGradient id="RAZOR__f" x1="1.412" x2="20.316" y1="10.946" y2="10.946" gradientUnits="userSpaceOnUse">
            <stop stop-color="#14779A"/>
            <stop offset="1" stop-color="#4FA8FF"/>
        </linearGradient>
    </defs>
</svg>
